X: 65
M:2/4
L:1/16
K:G
u((3DEF)"^Segno"|:\
gdBd edBd | gabg fdef | gdBd edBd |  egfa g2g2 |
gabg efge | dedc BGBd | efed edBd |1 egfa g2g2 :|2 egfa gedB "^Segno"|]


